assets/img/hr-red-2.svg

<?xml version="1.0" encoding="UTF-8" standalone="no"?>
<svg width="80px" height="8px" viewBox="0 0 80 8" version="1.1" xmlns="http://www.w3.org/2000/svg" xmlns:xlink="http://www.w3.org/1999/xlink">
    <!-- Generator: Sketch 39.1 (31720) - http://www.bohemiancoding.com/sketch -->
    <title>Group 2</title>
    <desc>Created with Sketch.</desc>
    <defs></defs>
    <g id="Page-1" stroke="none" stroke-width="1" fill="none" fill-rule="evenodd">
        <g id="Playbook-Landing-Page-2b" transform="translate(-100.000000, -308.000000)" fill="#E21C3D">
            <g id="Group-2" transform="translate(100.000000, 308.000000)">
                <path d="M-8.8817842e-16,4 C-8.8817842e-16,1.790861 1.79642476,0 4.00002553,0 L35.9999745,0 C38.2091276,0 40,1.79535615 40,4 L40,4 C40,6.209139 38.2035752,8 35.9999745,8 L4.00002553,8 C1.79087243,8 -8.8817842e-16,6.20464385 -8.8817842e-16,4 L-8.8817842e-16,4 Z" id="Rectangle-234-Copy-8"></path>
                <path d="M60,4 C60,1.790861 61.7924676,0 63.99923,0 L76.00077,0 C78.2094838,0 80,1.79535615 80,4 L80,4 C80,6.209139 78.2075324,8 76.00077,8 L63.99923,8 C61.7905162,8 60,6.20464385 60,4 L60,4 Z" id="Rectangle-234-Copy-11"></path>
                <path d="M46,4 C46,1.790861 47.7953562,0 50,0 L50,0 C52.209139,0 54,1.79535615 54,4 L54,4 C54,6.209139 52.2046438,8 50,8 L50,8 C47.790861,8 46,6.20464385 46,4 L46,4 Z" id="Rectangle-234-Copy-10"></path>
            </g>
        </g>
    </g>
</svg>

<svg width="80" height="8" xmlns="http://www.w3.org/2000/svg"><path d="M0 4c0-2.21 1.796-4 4-4h32c2.21 0 4 1.795 4 4 0 2.21-1.796 4-4 4H4C1.79 8 0 6.205 0 4zm60 0a4 4 0 014-4h12a4 4 0 010 8H64c-2.21 0-4-1.795-4-4zM46 4c0-2.21 1.795-4 4-4 2.21 0 4 1.795 4 4 0 2.21-1.795 4-4 4-2.21 0-4-1.795-4-4z" fill="#E21C3D" fill-rule="evenodd"/></svg>
